src/assets/bg_register_btn.svg

<svg width="384" height="68" viewBox="0 0 384 68" fill="none" xmlns="http://www.w3.org/2000/svg">
<path d="M1.64603 7.01348C2.11483 4.56912 4.17191 2.87911 6.65721 2.74515C19.9828 2.02685 68.6126 -0.00732422 192 -0.00732422C315.856 -0.00732422 364.386 2.04234 377.493 2.75328C379.905 2.88408 381.909 4.48565 382.386 6.85305C383.427 12.0174 384.781 22.264 383.439 36.9927C382.03 52.4574 378.639 60.0161 376.75 63.1422C375.987 64.4037 374.638 65.0357 373.166 65.1062C361.733 65.6533 306.176 67.9927 192 67.9927C79.1313 67.9927 23.5465 65.7066 11.244 65.1257C9.54163 65.0453 7.97988 64.2231 7.17388 62.7215C5.27039 59.1752 1.95159 51.2106 0.561286 36.9927C-0.794619 23.1265 0.600874 12.4629 1.64603 7.01348Z" fill="url(#paint0_linear_499_23919)"/>
<path d="M2.30927 7.34053C2.5342 4.73498 4.64077 2.86963 7.25229 2.73019C20.9456 1.99906 69.6676 -0.00732422 192 -0.00732422C315.012 -0.00732422 363.593 2.02141 376.973 2.74226C379.48 2.87735 381.489 4.61796 381.71 7.11929C382.08 11.3099 382.287 19.0593 381.111 31.9927C379.78 46.625 377.121 54.6218 375.489 58.3369C374.729 60.0678 373.05 61.016 371.16 61.0553C354.896 61.3942 273.848 62.9927 192 62.9927C110.706 62.9927 30.2004 61.4158 13.1787 61.0624C11.1007 61.0192 9.27085 59.8917 8.49558 57.9633C6.86271 53.9017 4.21625 45.5849 2.88941 31.9927C1.69267 19.7333 1.92728 11.7654 2.30927 7.34053Z" fill="url(#paint1_linear_499_23919)"/>
<g style="mix-blend-mode:screen">
<path d="M192 55.9927C215.882 55.9927 346.821 54.0878 364 53.9927C364 53.9927 313.5 57.9927 192 57.9927C70.5 57.9927 20 53.9927 20 53.9927C37.1787 54.0877 168.118 55.9927 192 55.9927Z" fill="url(#paint2_linear_499_23919)"/>
</g>
<g style="mix-blend-mode:screen">
<path d="M3.99958 9.26663C4.38102 6.69903 6.51413 4.86802 9.10609 4.72723C22.6111 3.99366 70.5776 1.99268 192 1.99268C313.527 1.99268 361.472 3.99713 374.929 4.72913C377.505 4.86927 379.626 6.68222 380.01 9.23348C380.928 15.3346 381.99 27.4676 379.22 41.9927C380.853 24.8653 377.159 13.7246 375.74 10.1981C375.416 9.39242 374.817 8.83377 373.962 8.68631C368.531 7.75049 339.973 4.99268 192 4.99268C44.471 4.99268 15.6418 7.73395 10.0879 8.67783C9.1996 8.8288 8.58189 9.41266 8.25475 10.2523C6.83297 13.9011 3.14864 25.2922 4.77987 41.9927C2.00017 27.7635 3.07929 15.4614 3.99958 9.26663Z" fill="url(#paint3_linear_499_23919)"/>
</g>
<path d="M9.26544 12.464C9.47662 10.837 10.7895 9.91776 12.4268 9.81409C22.6251 9.16835 66.3124 6.99268 192 6.99268C324.795 6.99268 366.053 9.42136 372.991 9.90828C373.745 9.96119 374.377 10.291 374.554 11.0257C374.999 12.8742 375.446 17.9826 374.111 31.9927C372.481 49.0903 368.862 52.9304 367.573 53.7672C367.282 53.9561 366.988 53.9955 366.641 54.0036C359.843 54.1624 279.584 55.9927 192 55.9927C107.086 55.9927 29.0569 54.2723 18.1837 54.0227C17.3014 54.0025 16.4801 53.7686 15.9042 53.0998C14.3421 51.2856 11.3339 46.0673 9.88943 31.9927C8.73922 20.785 8.91119 15.1931 9.26544 12.464Z" fill="url(#paint4_linear_499_23919)"/>
<mask id="mask0_499_23919" style="mask-type:alpha" maskUnits="userSpaceOnUse" x="9" y="6" width="366" height="50">
<path d="M9.23542 13.0315C9.45279 11.0868 11.0201 9.89501 12.9731 9.77142C23.9319 9.07795 67.2476 6.99268 191.889 6.99268C315.749 6.99268 359.3 9.0519 370.595 9.75822C372.666 9.88773 374.328 11.1863 374.548 13.2495C374.877 16.3242 374.999 22.002 373.889 31.9927C372.529 44.2274 369.784 49.9941 368.165 52.433C367.439 53.5271 366.198 54.0092 364.885 54.039C351.679 54.339 275.091 55.9927 191.889 55.9927C108.174 55.9927 31.1548 54.3185 18.6556 54.0336C17.4738 54.0067 16.374 53.6073 15.6882 52.6446C14.0801 50.387 11.2696 44.7643 9.88889 31.9927C8.7722 21.6633 8.9025 16.0102 9.23542 13.0315Z" fill="url(#paint5_linear_499_23919)"/>
</mask>
<g mask="url(#mask0_499_23919)">
<g filter="url(#filter0_f_499_23919)">
<ellipse cx="194" cy="56.4927" rx="180" ry="11.5" fill="#01A406"/>
</g>
</g>
<g style="mix-blend-mode:screen" opacity="0.66">
<path d="M13.2106 15.1888C13.3797 14.2193 14.4052 13.9489 15.387 13.8818C23.323 13.3395 65.0016 10.9927 192 10.9927C323.856 10.9927 363.741 13.5224 369.378 13.9359C369.881 13.9727 370.316 14.1678 370.481 14.6439C370.944 15.9853 371.52 20.0229 370.111 31.9927C368.533 45.3959 365.089 49.4749 363.702 50.601C363.334 50.9003 362.909 50.9977 362.434 51.0092C354.566 51.2008 278.662 52.9927 192 52.9927C103.383 52.9927 26.0141 51.119 21.1375 50.9987C20.9712 50.9946 20.8112 51.0026 20.6478 50.9711C19.6179 50.7728 15.6249 48.9031 13.8894 31.9927C12.8005 21.3816 12.8966 16.9888 13.2106 15.1888Z" fill="url(#paint6_linear_499_23919)"/>
</g>
<g style="mix-blend-mode:screen" opacity="0.47" filter="url(#filter1_f_499_23919)">
<ellipse cx="192" cy="18.4927" rx="179" ry="6.5" fill="#77FF7B"/>
</g>
<defs>
<filter id="filter0_f_499_23919" x="6.5" y="37.4927" width="375" height="38" filterUnits="userSpaceOnUse" color-interpolation-filters="sRGB">
<feFlood flood-opacity="0" result="BackgroundImageFix"/>
<feBlend mode="normal" in="SourceGraphic" in2="BackgroundImageFix" result="shape"/>
<feGaussianBlur stdDeviation="3.75" result="effect1_foregroundBlur_499_23919"/>
</filter>
<filter id="filter1_f_499_23919" x="5.5" y="4.49268" width="373" height="28" filterUnits="userSpaceOnUse" color-interpolation-filters="sRGB">
<feFlood flood-opacity="0" result="BackgroundImageFix"/>
<feBlend mode="normal" in="SourceGraphic" in2="BackgroundImageFix" result="shape"/>
<feGaussianBlur stdDeviation="3.75" result="effect1_foregroundBlur_499_23919"/>
</filter>
<linearGradient id="paint0_linear_499_23919" x1="192" y1="-0.00732422" x2="192" y2="82.9927" gradientUnits="userSpaceOnUse">
<stop stop-color="#FDC00F"/>
<stop offset="1" stop-color="#955C1A"/>
</linearGradient>
<linearGradient id="paint1_linear_499_23919" x1="192" y1="-0.00732422" x2="192" y2="82.9927" gradientUnits="userSpaceOnUse">
<stop stop-color="#FDC00F"/>
<stop offset="1" stop-color="#E9BA02"/>
</linearGradient>
<linearGradient id="paint2_linear_499_23919" x1="192" y1="-20.0074" x2="192" y2="62.9926" gradientUnits="userSpaceOnUse">
<stop stop-color="#FDC00F"/>
<stop offset="1" stop-color="#E9BA02"/>
</linearGradient>
<linearGradient id="paint3_linear_499_23919" x1="192" y1="-0.00732397" x2="192" y2="82.9927" gradientUnits="userSpaceOnUse">
<stop stop-color="#FFD866"/>
<stop offset="1" stop-color="#FFD73B"/>
</linearGradient>
<linearGradient id="paint4_linear_499_23919" x1="192" y1="4.99268" x2="192" y2="77.9927" gradientUnits="userSpaceOnUse">
<stop stop-color="#004A02"/>
<stop offset="1" stop-color="#008C05"/>
</linearGradient>
<linearGradient id="paint5_linear_499_23919" x1="191.889" y1="4.99268" x2="191.889" y2="77.9927" gradientUnits="userSpaceOnUse">
<stop stop-color="#006403"/>
<stop offset="1" stop-color="#009A05"/>
</linearGradient>
<linearGradient id="paint6_linear_499_23919" x1="192" y1="4.99268" x2="192" y2="77.9927" gradientUnits="userSpaceOnUse">
<stop stop-color="#009A05"/>
<stop offset="0.485" stop-color="#006403" stop-opacity="0"/>
</linearGradient>
</defs>
</svg>

<svg width="384" height="68" fill="none" xmlns="http://www.w3.org/2000/svg"><path d="M1.646 7.013C2.115 4.57 4.172 2.88 6.657 2.745 19.983 2.027 68.613-.007 192-.007c123.856 0 172.386 2.05 185.493 2.76 2.412.131 4.416 1.733 4.893 4.1 1.041 5.164 2.395 15.411 1.053 30.14-1.409 15.464-4.8 23.023-6.689 26.15-.763 1.26-2.112 1.893-3.584 1.963-11.433.547-66.99 2.887-181.166 2.887-112.869 0-168.453-2.286-180.756-2.867-1.702-.08-3.264-.903-4.07-2.405C5.27 59.175 1.952 51.212.56 36.993c-1.356-13.867.04-24.53 1.085-29.98z" fill="url(#a)"/><path d="M2.31 7.34c.224-2.605 2.33-4.47 4.942-4.61C20.946 2 69.668-.007 192-.007c123.012 0 171.593 2.028 184.973 2.75 2.507.134 4.516 1.875 4.737 4.376.37 4.19.577 11.94-.599 24.874-1.331 14.632-3.99 22.629-5.622 26.344-.76 1.73-2.439 2.679-4.329 2.718-16.264.34-97.312 1.938-179.16 1.938-81.294 0-161.8-1.577-178.821-1.93-2.078-.044-3.908-1.171-4.683-3.1-1.633-4.061-4.28-12.378-5.607-25.97-1.196-12.26-.962-20.228-.58-24.652z" fill="url(#b)"/><path d="M192 55.993c23.882 0 154.821-1.905 172-2 0 0-50.5 4-172 4s-172-4-172-4c17.179.095 148.118 2 172 2z" fill="url(#c)" style="mix-blend-mode:screen"/><path d="M4 9.267c.381-2.568 2.514-4.399 5.106-4.54C22.611 3.994 70.578 1.993 192 1.993c121.527 0 169.472 2.004 182.929 2.736 2.576.14 4.697 1.953 5.081 4.504.918 6.102 1.98 18.235-.79 32.76 1.633-17.128-2.061-28.268-3.48-31.795-.324-.806-.923-1.364-1.778-1.512C368.531 7.75 339.973 4.993 192 4.993c-147.529 0-176.358 2.74-181.912 3.685-.888.15-1.506.735-1.833 1.574-1.422 3.65-5.106 15.04-3.475 31.74C2 27.765 3.08 15.463 4 9.268z" fill="url(#d)" style="mix-blend-mode:screen"/><path d="M9.265 12.464c.212-1.627 1.524-2.546 3.162-2.65C22.625 9.168 66.312 6.993 192 6.993c132.795 0 174.053 2.428 180.991 2.915.754.053 1.386.383 1.563 1.118.445 1.848.892 6.957-.443 20.967-1.63 17.097-5.249 20.937-6.538 21.774-.291.19-.585.228-.932.237-6.798.158-87.057 1.989-174.641 1.989-84.914 0-162.943-1.72-173.816-1.97-.883-.02-1.704-.254-2.28-.923-1.562-1.814-4.57-7.033-6.015-21.107-1.15-11.208-.978-16.8-.624-19.529z" fill="url(#e)"/><mask id="g" style="mask-type:alpha" maskUnits="userSpaceOnUse" x="9" y="6" width="366" height="50"><path d="M9.235 13.031c.218-1.944 1.785-3.136 3.738-3.26 10.959-.693 54.275-2.778 178.916-2.778 123.86 0 167.411 2.059 178.706 2.765 2.071.13 3.733 1.428 3.953 3.492.329 3.074.451 8.752-.659 18.743-1.36 12.234-4.105 18.001-5.724 20.44-.726 1.094-1.967 1.576-3.28 1.606-13.206.3-89.794 1.954-172.996 1.954-83.715 0-160.734-1.675-173.233-1.96-1.182-.026-2.282-.426-2.968-1.388-1.608-2.258-4.418-7.88-5.8-20.652-1.116-10.33-.986-15.983-.653-18.961z" fill="url(#f)"/></mask><g filter="url(#h)" mask="url(#g)"><ellipse cx="194" cy="56.493" rx="180" ry="11.5" fill="#01A406"/></g><path d="M13.21 15.189c.17-.97 1.195-1.24 2.177-1.307 7.936-.543 49.615-2.89 176.613-2.89 131.856 0 171.741 2.53 177.378 2.944.503.037.938.232 1.103.708.463 1.341 1.039 5.379-.37 17.349-1.578 13.403-5.022 17.482-6.409 18.608-.368.3-.793.397-1.268.408-7.868.192-83.772 1.984-170.434 1.984-88.617 0-165.986-1.874-170.863-1.994-.166-.004-.326.004-.49-.028-1.03-.198-5.022-2.068-6.758-18.978-1.088-10.611-.992-15.004-.678-16.804z" fill="url(#i)" style="mix-blend-mode:screen" opacity=".66"/><g style="mix-blend-mode:screen" opacity=".47" filter="url(#j)"><ellipse cx="192" cy="18.493" rx="179" ry="6.5" fill="#77FF7B"/></g><defs><linearGradient id="a" x1="192" y1="-.007" x2="192" y2="82.993" gradientUnits="userSpaceOnUse"><stop stop-color="#FDC00F"/><stop offset="1" stop-color="#955C1A"/></linearGradient><linearGradient id="b" x1="192" y1="-.007" x2="192" y2="82.993" gradientUnits="userSpaceOnUse"><stop stop-color="#FDC00F"/><stop offset="1" stop-color="#E9BA02"/></linearGradient><linearGradient id="c" x1="192" y1="-20.007" x2="192" y2="62.993" gradientUnits="userSpaceOnUse"><stop stop-color="#FDC00F"/><stop offset="1" stop-color="#E9BA02"/></linearGradient><linearGradient id="d" x1="192" y1="-.007" x2="192" y2="82.993" gradientUnits="userSpaceOnUse"><stop stop-color="#FFD866"/><stop offset="1" stop-color="#FFD73B"/></linearGradient><linearGradient id="e" x1="192" y1="4.993" x2="192" y2="77.993" gradientUnits="userSpaceOnUse"><stop stop-color="#004A02"/><stop offset="1" stop-color="#008C05"/></linearGradient><linearGradient id="f" x1="191.889" y1="4.993" x2="191.889" y2="77.993" gradientUnits="userSpaceOnUse"><stop stop-color="#006403"/><stop offset="1" stop-color="#009A05"/></linearGradient><linearGradient id="i" x1="192" y1="4.993" x2="192" y2="77.993" gradientUnits="userSpaceOnUse"><stop stop-color="#009A05"/><stop offset=".485" stop-color="#006403" stop-opacity="0"/></linearGradient><filter id="h" x="6.5" y="37.493" width="375" height="38" filterUnits="userSpaceOnUse" color-interpolation-filters="sRGB"><feFlood flood-opacity="0" result="BackgroundImageFix"/><feBlend in="SourceGraphic" in2="BackgroundImageFix" result="shape"/><feGaussianBlur stdDeviation="3.75" result="effect1_foregroundBlur_499_23919"/></filter><filter id="j" x="5.5" y="4.493" width="373" height="28" filterUnits="userSpaceOnUse" color-interpolation-filters="sRGB"><feFlood flood-opacity="0" result="BackgroundImageFix"/><feBlend in="SourceGraphic" in2="BackgroundImageFix" result="shape"/><feGaussianBlur stdDeviation="3.75" result="effect1_foregroundBlur_499_23919"/></filter></defs></svg>
